tenants/businesswise/icons/thumbs_up.svg

<svg fill="none" height="24" viewBox="0 0 24 24" width="24" xmlns="http://www.w3.org/2000/svg"><path d="m21.4279 13.1988c.3654-.58.5721-1.1988.5721-1.9468 0-1.71938-1.5507-3.34302-3.5758-3.34302h-1.52c.205-.50039.3687-1.09882.3687-1.81796 0-2.84352-1.5704-4.09102-3.9696-4.09102-2.5669 0-2.4205 3.70832-2.99 4.24219-.94776.88855-2.06726 2.59558-2.86497 3.25781h-4.115c-.73637 0-1.33333.5596-1.33333 1.25v9.375c0 .6904.59696 1.25 1.33333 1.25h2.66667c.62054 0 1.142-.3974 1.29075-.9355 1.85454.0391 3.12755 1.5601 7.40845 1.5601.3008 0 .6341.0004.9258.0004 3.2132 0 4.6661-1.54 4.7058-3.7238.555-.7198.8458-1.6845.7225-2.6168.4106-.7208.5694-1.5759.3746-2.4606zm-2.5729 2.1028c.5233.8254.0525 1.93-.5808 2.2488.3208 1.9055-.7337 2.5742-2.2134 2.5742h-1.5758c-2.985 0-4.91787-1.4773-7.15167-1.4773v-7.2723h.455c1.18167 0 2.83247-2.76914 3.93917-3.80703 1.1817-1.10781.7879-2.9543 1.5758-3.69297 1.9696 0 1.9696 1.28828 1.9696 2.21602 0 1.53007-1.1816 2.21562-1.1816 3.69296h4.3329c.8796 0 1.5721.73872 1.5758 1.47732.0038.7383-.5342 1.477-.9279 1.477.562.5685.6821 1.767-.2171 2.5633zm-13.18833 3.5734c0 .5178-.44771.9375-1 .9375s-1-.4197-1-.9375.44771-.9375 1-.9375 1 .4197 1 .9375z" fill="#000"/></svg>

<svg width="24" height="24" viewBox="0 0 24 24" fill="none" xmlns="http://www.w3.org/2000/svg">
<path d="M21.4279 13.1988C21.7933 12.6188 22 12 22 11.252C22 9.53262 20.4493 7.90898 18.4242 7.90898H16.9042C17.1092 7.40859 17.2729 6.81016 17.2729 6.09102C17.2729 3.2475 15.7025 2 13.3033 2C10.7364 2 10.8828 5.70832 10.3133 6.24219C9.36554 7.13074 8.24604 8.83777 7.44833 9.5H3.33333C2.59696 9.5 2 10.0596 2 10.75V20.125C2 20.8154 2.59696 21.375 3.33333 21.375H6C6.62054 21.375 7.142 20.9776 7.29075 20.4395C9.14529 20.4786 10.4183 21.9996 14.6992 21.9996C15 21.9996 15.3333 22 15.625 22C18.8382 22 20.2911 20.46 20.3308 18.2762C20.8858 17.5564 21.1766 16.5917 21.0533 15.6594C21.4639 14.9386 21.6227 14.0835 21.4279 13.1988ZM18.855 15.3016C19.3783 16.127 18.9075 17.2316 18.2742 17.5504C18.595 19.4559 17.5405 20.1246 16.0608 20.1246H14.485C11.5 20.1246 9.56713 18.6473 7.33333 18.6473V11.375H7.78833C8.97 11.375 10.6208 8.60586 11.7275 7.56797C12.9092 6.46016 12.5154 4.61367 13.3033 3.875C15.2729 3.875 15.2729 5.16328 15.2729 6.09102C15.2729 7.62109 14.0913 8.30664 14.0913 9.78398H18.4242C19.3038 9.78398 19.9963 10.5227 20 11.2613C20.0038 11.9996 19.4658 12.7383 19.0721 12.7383C19.6341 13.3068 19.7542 14.5053 18.855 15.3016V15.3016ZM5.66667 18.875C5.66667 19.3928 5.21896 19.8125 4.66667 19.8125C4.11438 19.8125 3.66667 19.3928 3.66667 18.875C3.66667 18.3572 4.11438 17.9375 4.66667 17.9375C5.21896 17.9375 5.66667 18.3572 5.66667 18.875Z" fill="black"/>
</svg>
